ix/eye_twotone.svg

<svg viewBox="0 0 24 24" fill="none" xmlns="http://www.w3.org/2000/svg" height="1em" width="1em">
  <path opacity="0.4" d="M15.5799 11.9999C15.5799 13.9799 13.9799 15.5799 11.9999 15.5799C10.0199 15.5799 8.41992 13.9799 8.41992 11.9999C8.41992 10.0199 10.0199 8.41992 11.9999 8.41992C13.9799 8.41992 15.5799 10.0199 15.5799 11.9999Z" stroke="#292D32" stroke-width="1.5" stroke-linecap="round" stroke-linejoin="round"/>
  <path d="M11.9998 20.2702C15.5298 20.2702 18.8198 18.1902 21.1098 14.5902C22.0098 13.1802 22.0098 10.8102 21.1098 9.40021C18.8198 5.80021 15.5298 3.72021 11.9998 3.72021C8.46984 3.72021 5.17984 5.80021 2.88984 9.40021C1.98984 10.8102 1.98984 13.1802 2.88984 14.5902C5.17984 18.1902 8.46984 20.2702 11.9998 20.2702Z" stroke="#292D32" stroke-width="1.5" stroke-linecap="round" stroke-linejoin="round"/>
</svg>

<svg viewBox="0 0 24 24" fill="none" xmlns="http://www.w3.org/2000/svg" height="1em" width="1em">
  <path opacity=".4" d="M15.58 12c0 1.98-1.6 3.58-3.58 3.58S8.42 13.98 8.42 12s1.6-3.58 3.58-3.58 3.58 1.6 3.58 3.58Z" stroke="#292D32" stroke-width="1.5" stroke-linecap="round" stroke-linejoin="round"/>
  <path d="M12 20.27c3.53 0 6.82-2.08 9.11-5.68.9-1.41.9-3.78 0-5.19-2.29-3.6-5.58-5.68-9.11-5.68-3.53 0-6.82 2.08-9.11 5.68-.9 1.41-.9 3.78 0 5.19 2.29 3.6 5.58 5.68 9.11 5.68Z" stroke="#292D32" stroke-width="1.5" stroke-linecap="round" stroke-linejoin="round"/>
</svg>
